!!! OTL: Berkowitz290
!!! Chapter: 1
!!! Section: III
!!! Page: 69
!!! Mode: 
!!! Encoder: DJB
**kern
*staff1
*I"Piano
=1-
*clefC3
*k[b-]
*d:
*M6/8
8r
8r
8r
8r
8r
8A/
=2
4a\
8A/
8.b-\L
16cc\K
8b-\J
=3
4a\
8A/
4a\
8A/
=4
8.f\L
16g\K
8f\J
8e\L
8d\
8c#\J
=5
4d\
8ee\
4cc#\
8a\
=6
8.b-\L
16cc\K
8b-\J
4a\
8A/
=7
!!linebreak:original
4a\
8A/
4f\
8d\
=8
8b-\L
8a\
8g\J
8.f\L
16e\K
8d\J
=9
8c#\
8r
8ee\
4dd\
8r
==
*-
